T: Pride And Joy
M: 2/4
L: 1/8
K: Gmaj
|:G2 cB | cd ef | gf ga | g4 | fe fg | fe dB | cB ce | dc BA |
